archdroid-icon-theme/Archdroid-Pink/apps/scalable/wmtweaks.svg

<svg xmlns="http://www.w3.org/2000/svg" height="48" viewBox="0 0 44.00000000000001 36" fill="#E91E63"><path d="m40 0h-36c-2.21 0-4 1.79-4 4v28c0 2.21 1.79 4 4 4h36c2.21 0 4-1.79 4-4v-28c0-2.21-1.79-4-4-4m0 32h-36v-28h20v8h16v20"/><path d="m38.86 25.95c.08-.64.14-1.29.14-1.95 0-.66-.06-1.31-.14-1.95l4.23-3.31c.38-.3.49-.84.24-1.28l-4-6.93c-.25-.43-.77-.61-1.22-.43l-4.98 2.01c-1.03-.79-2.16-1.46-3.38-1.97l-.75-5.3c-.09-.47-.5-.84-1-.84h-8c-.5 0-.91.37-.99.84l-.75 5.3c-1.22.51-2.35 1.17-3.38 1.97l-4.98-2.01c-.45-.17-.97 0-1.22.43l-4 6.93c-.25.43-.14.97.24 1.28l4.22 3.31c-.08.64-.14 1.29-.14 1.95 0 .66.06 1.31.14 1.95l-4.22 3.31c-.38.3-.49.84-.24 1.28l4 6.93c.25.43.77.61 1.22.43l4.98-2.01c1.03.79 2.16 1.46 3.38 1.97l.75 5.3c.08.47.49.84.99.84h8c.5 0 .91-.37.99-.84l.75-5.3c1.22-.51 2.35-1.17 3.38-1.97l4.98 2.01c.45.17.97 0 1.22-.43l4-6.93c.25-.43.14-.97-.24-1.28l-4.22-3.31m-14.86 5.05c-3.87 0-7-3.13-7-7 0-3.87 3.13-7 7-7 3.87 0 7 3.13 7 7 0 3.87-3.13 7-7 7" transform="matrix(.5 0 0 .5 3.727 8)"/></svg>

<?xml version="1.0" encoding="UTF-8" standalone="no"?>
<svg
   xmlns:dc="http://purl.org/dc/elements/1.1/"
   xmlns:cc="http://creativecommons.org/ns#"
   xmlns:rdf="http://www.w3.org/1999/02/22-rdf-syntax-ns#"
   xmlns:svg="http://www.w3.org/2000/svg"
   xmlns="http://www.w3.org/2000/svg"
   xmlns:sodipodi="http://sodipodi.sourceforge.net/DTD/sodipodi-0.dtd"
   xmlns:inkscape="http://www.inkscape.org/namespaces/inkscape"
   width="44"
   height="48"
   viewBox="0 0 44.00000000000001 36"
   id="svg2"
   version="1.1"
   inkscape:version="0.91 r13725"
   sodipodi:docname="wmtweaks.svg"
   style="fill:#E91E63">
  <metadata
     id="metadata10">
    <rdf:RDF>
      <cc:Work
         rdf:about="">
        <dc:format>image/svg+xml</dc:format>
        <dc:type
           rdf:resource="http://purl.org/dc/dcmitype/StillImage" />
        <dc:title></dc:title>
      </cc:Work>
    </rdf:RDF>
  </metadata>
  <defs
     id="defs8" />
  <sodipodi:namedview
     pagecolor="#ffffff"
     bordercolor="#666666"
     borderopacity="1"
     objecttolerance="10"
     gridtolerance="10"
     guidetolerance="10"
     inkscape:pageopacity="0"
     inkscape:pageshadow="2"
     inkscape:window-width="1366"
     inkscape:window-height="713"
     id="namedview6"
     showgrid="false"
     inkscape:snap-bbox="true"
     inkscape:bbox-nodes="true"
     inkscape:snap-bbox-midpoints="true"
     inkscape:snap-object-midpoints="true"
     inkscape:object-paths="true"
     inkscape:object-nodes="true"
     inkscape:snap-intersection-paths="true"
     fit-margin-top="0"
     fit-margin-left="0"
     fit-margin-right="0"
     fit-margin-bottom="0"
     inkscape:zoom="7.52508282063417"
     inkscape:cx="3.453358945842176"
     inkscape:cy="10.81755290714128"
     inkscape:window-x="0"
     inkscape:window-y="30"
     inkscape:window-maximized="1"
     inkscape:current-layer="svg2" />
  <path
     d="M 40,0 4,0 C 1.79,0 -4.440892098500627e-16,1.789999999999999 -4.440892098500627e-16,4 l 0,28 C -4.440892098500627e-16,34.21 1.79,36 4,36 l 36,0 c 2.21000000000001,0 4,-1.79 4,-4 L 44,4 C 44,1.789999999999999 42.21000000000001,0 40,0 Z M 40,32 4,32 4,4 23.99999999999999,4 l 0,8 L 40,12 40,32 Z"
     id="path4"
     inkscape:connector-curvature="0" />
  <g
     style="fill:#E91E63"
     id="g4161"
     transform="matrix(0.4999999999999999,0,0,0.5,3.727122472138834,8)">
    <path
       id="path4163"
       d="M 38.86,25.95 C 38.94,25.31 39,24.66 39,24 39,23.34 38.94,22.69 38.86,22.05 l 4.23000000000001,-3.31 c 0.38000000000001,-0.3 0.49,-0.84 0.24,-1.28 l -4,-6.93 C 39.08000000000001,10.1 38.56,9.920000000000001 38.11000000000001,10.1 l -4.98,2.01 c -1.03,-0.79 -2.16,-1.46 -3.38,-1.97 L 29,4.84 C 28.91,4.37 28.5,4 28,4 L 20,4 C 19.5,4 19.09,4.37 19.01,4.84 L 18.26,10.14 c -1.22,0.51 -2.35,1.17 -3.38,1.97 L 9.9,10.1 c -0.449999999999999,-0.17 -0.970000000000001,0 -1.220000000000001,0.43 l -4,6.93 c -0.25,0.43 -0.14,0.97 0.24,1.28 L 9.14,22.05 C 9.06,22.69 9,23.34 9,24 9,24.66 9.06,25.31 9.14,25.95 l -4.22,3.31 c -0.38,0.3 -0.49,0.84 -0.24,1.28 l 3.999999999999999,6.93 c 0.25,0.43 0.77,0.61 1.220000000000001,0.43 L 14.88,35.89 c 1.03,0.79 2.16,1.46 3.38,1.97 l 0.75,5.3 C 19.09,43.63 19.5,44 20,44 l 8,0 c 0.5,0 0.91,-0.37 0.99,-0.84 l 0.75,-5.3 c 1.22,-0.51 2.35,-1.17 3.38,-1.97 l 4.98,2.01 c 0.45,0.17 0.97,0 1.22,-0.43 l 4,-6.93 c 0.25,-0.43 0.14,-0.97 -0.24000000000001,-1.28 l -4.22,-3.31 z M 24,31 c -3.87,0 -7,-3.13 -7,-7 0,-3.87 3.13,-7 7,-7 3.87,0 7,3.13 7,7 0,3.87 -3.13,7 -7,7 z"
       inkscape:connector-curvature="0" />
  </g>
  <circle
     style="opacity:1;fill:none;fill-opacity:1;fill-rule:nonzero;stroke:none;stroke-width:16;stroke-miterlimit:4;stroke-dasharray:none;stroke-opacity:1"
     id="path4165"
     cx="42.1016960144043"
     cy="37.22034072875977"
     ry="10.77966117858887"
     rx="13.62711906433105" />
</svg>
